img/app.svg

<?xml version="1.0" encoding="UTF-8" standalone="no"?>
<svg
   xmlns:dc="http://purl.org/dc/elements/1.1/"
   xmlns:cc="http://creativecommons.org/ns#"
   xmlns:rdf="http://www.w3.org/1999/02/22-rdf-syntax-ns#"
   xmlns:svg="http://www.w3.org/2000/svg"
   xmlns="http://www.w3.org/2000/svg"
   xmlns:sodipodi="http://sodipodi.sourceforge.net/DTD/sodipodi-0.dtd"
   xmlns:inkscape="http://www.inkscape.org/namespaces/inkscape"
   viewBox="0 -1 104 106"
   version="1.1"
   id="svg22"
   sodipodi:docname="app.svg"
   inkscape:version="0.92.5 (2060ec1f9f, 2020-04-08)">
  <metadata
     id="metadata26">
    <rdf:RDF>
      <cc:Work
         rdf:about="">
        <dc:format>image/svg+xml</dc:format>
        <dc:type
           rdf:resource="http://purl.org/dc/dcmitype/StillImage" />
        <dc:title>Discourse_logo</dc:title>
      </cc:Work>
    </rdf:RDF>
  </metadata>
  <sodipodi:namedview
     pagecolor="#ffffff"
     bordercolor="#666666"
     borderopacity="1"
     objecttolerance="10"
     gridtolerance="10"
     guidetolerance="10"
     inkscape:pageopacity="0"
     inkscape:pageshadow="2"
     inkscape:window-width="1920"
     inkscape:window-height="1051"
     id="namedview24"
     showgrid="false"
     inkscape:zoom="6.2972528"
     inkscape:cx="2.3684009"
     inkscape:cy="50.943822"
     inkscape:window-x="0"
     inkscape:window-y="-37"
     inkscape:window-maximized="1"
     inkscape:current-layer="Layer_3" />
  <defs
     id="defs4">
    <style
       id="style2">.cls-1{fill:#231f20;}.cls-2{fill:#fff9ae;}.cls-3{fill:#00aeef;}.cls-4{fill:#00a94f;}.cls-5{fill:#f15d22;}.cls-6{fill:#e31b23;}</style>
  </defs>
  <title
     id="title6">Discourse_logo</title>
  <g
     id="Layer_2"
     data-name="Layer 2">
    <g
       id="Layer_3"
       data-name="Layer 3">
      <path
         d="M 51.869141 1 C 23.709141 1 -4.7369516e-15 23.83 0 52 L 0 104.81055 L 51.859375 104.75977 C 80.019375 104.75977 102.85938 81.050625 102.85938 52.890625 C 102.85938 24.730625 79.999141 1 51.869141 1 z M 52.369141 20.740234 L 52.400391 20.740234 A 31.61 31.61 0 1 1 39.400391 81.169922 L 18.859375 85.810547 L 24.580078 67.410156 A 31.62 31.62 0 0 1 52.369141 20.740234 z "
         transform="translate(0,-1)"
         id="path8"
         style="fill:#ffffff;fill-opacity:1" />
      <path
         class="cls-3"
         d="M77.45,32.12a31.6,31.6,0,0,1-38.05,48L18.86,84.82l20.91-2.47A31.6,31.6,0,0,0,77.45,32.12Z"
         id="path12"
         style="fill:#c8c8c8;fill-opacity:0.99607843" />
      <path
         class="cls-4"
         d="M71.63,26.29A31.6,31.6,0,0,1,38.8,78L18.86,84.82,39.4,80.17A31.6,31.6,0,0,0,71.63,26.29Z"
         id="path14"
         style="fill:#969696;fill-opacity:0.99665552" />
      <path
         class="cls-5"
         d="M26.47,67.11a31.61,31.61,0,0,1,51-35A31.61,31.61,0,0,0,24.58,66.41l-5.72,18.4Z"
         id="path16"
         style="fill:#969696;fill-opacity:0.99665552" />
      <path
         class="cls-6"
         d="M24.58,66.41A31.61,31.61,0,0,1,71.63,26.29a31.61,31.61,0,0,0-49,39.63l-3.76,18.9Z"
         id="path18"
         style="fill:#c8c8c8;fill-opacity:0.78431374" />
    </g>
  </g>
</svg>

<svg version="1.1" viewBox="0 0 106 106" xmlns="http://www.w3.org/2000/svg" fill="#fff">
	<g transform="translate(2,0)">
		<path d="m51.869 1c-28.16 0-51.869 22.83-51.869 51v52.811l51.859-0.05078c28.16 0 51-23.709 51-51.869s-22.86-51.891-50.99-51.891zm0.5 19.74h0.03125a31.61 31.61 0 1 1-13 60.43l-20.541 4.6406 5.7207-18.4a31.62 31.62 0 0 1 27.789-46.67z" />
		<path class="cls-3" d="m77.45 32.12a31.6 31.6 0 0 1-38.05 48l-20.54 4.7 20.91-2.47a31.6 31.6 0 0 0 37.68-50.23z" fill="#c8c8c8" />
		<path class="cls-4" d="M71.63,26.29A31.6,31.6,0,0,1,38.8,78L18.86,84.82,39.4,80.17A31.6,31.6,0,0,0,71.63,26.29Z" fill="#969696" />
		<path class="cls-5" d="m26.47 67.11a31.61 31.61 0 0 1 51-35 31.61 31.61 0 0 0-52.89 34.3l-5.72 18.4z" fill="#969696" />
		<path class="cls-6" d="m24.58 66.41a31.61 31.61 0 0 1 47.05-40.12 31.61 31.61 0 0 0-49 39.63l-3.76 18.9z" fill="#c8c8c8" />
	</g>
</svg>
